!!!OTL: Jacob von Artefelde. (♱ 1345.)
!!!ARE: Europa, Mitteleuropa, Deutschland
!!!TXL: @@DUM
!!!SCT: A0364B
!!!YEM: Copyright 1995, estate of Helmut Schaffrath.
**kern	**text
*M6/4	*
*k[b-]	*
*F:	*
!LO:TX:a:t=F dur.	!
{4g	Het
=1	=1
2g	was
4f	up
2g	ee-
4a	-nen
=2	=2
2.f	maen-
2f}	-dag,
{4f	8ee_nen
=3	=3
2b-	maen-
4b-	-dag
2cc	al-
4a	-zoo
=4	=4
(4.g	vroeg,
8a	.
4b-/	.
2a)}	.
{4a	dat
=5	=5
2cc	Myn-
4cc	-hee-
2b-	-re
4a	Ser
=6	=6
2.g	Ja-
2a}	-cob
{4a	tot
=7	=7
4.b-/	ʒy-
8g	-ne
4g	ge-
2g	-ʒel-
4a	-len
=8	=8
(4.a	kloeg.
8g	.
4f	.
2g/;)}	.
==	==
!!!GTL: Einige historisch-politische Lieder
!!!AGN: Romanze, Ballade, Lied, Personenlied
!! Bei der Familie Westendorp in Elberfeld gehoert und mitgetheilt
!!    durch F.W. Arnold: Volkslieder I. S. 14.
!!!ONB: ESAC (Essen Associative Code) Database: ALTDEU
!!!AMT: compound duple
!!!AIN: vox
!!!EED: Helmut Schaffrath
!!!EEV: 1.0
!!!URL-scan: https://rosdok.uni-rostock.de/mcrviewer/recordIdentifier/rosdok_ppn738218359/iview2/phys_0511.iview2?x=-949.4259179952323&y=189.2622166252695&scale=0.3669911794666851&rotation=0&layout=singlePageLayout&logicalDiv=log_0014
!!!ENC: Anna Maria Matuszewska
!!!EEV: 2024/14/03
*-	*-
